X:293
T:Pinch of Snuff
Z: id:dc-reel-273
M:C
L:1/8
K:D Mixolydian
afge d^cdB|ADFA EFGB|A3B cBcd|ed^cd efge:|!
f2df afde|f2df efge|f2df afdf|eA^cA efge:|!

